!!!COM: Englebert Humperdinck
!!!LYR: Adelheid Wette
!!!OTL: In  the Evening, I Want to Go to Sleep
!!!OTL@@DE: Abends will ich schlafen gehen
!!!ARE: Deutschland
**kern
*clefG2
*k[f#c#]
*M4/4
*MM60
=1-
{4d
4f#
4f#
4a
=2
4b
4a
2a}
=3
{4dd
4a
4a
4f#
=4
4f#
8e
8d
[4e
8e]}
8r
=5
{4g
4g
4f#
4f#
=6
2e
4d}
4r
=7
{4a
4a
4a
4g
=8
4.g
8f#
4e}
4r
=9
{4b-
4b-
4.a
8b-
=10
2ccn
4bn}
4r
=11
{4dd
4dd
4.cc#
8dd
=12
2ee
4dd}
4r
=13
{4g
4b
4b
4dd
=14
2dd
4a}
4r
=15
{4a
4ccn
4ccn
4ee
=16
2ee
4b}
4r
=17
{4b
4dd
4dd
4ff#
=18
(4ff#
4ee)
4dd
4g#}
=19
{4a
4b
4cc#
4dd
=20
(2gg
4.ff#
8ee)
=21
2dd}
2r
==
*-